img/icon2.svg

<svg width="111" height="63" viewBox="0 0 111 63" fill="none" xmlns="http://www.w3.org/2000/svg">
<rect width="111" height="63" fill="white"/>
<path d="M52.3036 19.92H45.3196V27H42.1516V10.248H45.3196V17.112H52.3036V10.248H55.4716V27H52.3036V19.92ZM64.2736 27.288C63.3456 27.288 62.5136 27.136 61.7776 26.832C61.0576 26.512 60.4416 26.072 59.9296 25.512C59.4336 24.936 59.0496 24.248 58.7776 23.448C58.5056 22.632 58.3696 21.72 58.3696 20.712C58.3696 19.72 58.4976 18.824 58.7536 18.024C59.0256 17.224 59.4096 16.544 59.9056 15.984C60.4016 15.408 61.0096 14.968 61.7296 14.664C62.4496 14.344 63.2656 14.184 64.1776 14.184C65.1536 14.184 66.0016 14.352 66.7216 14.688C67.4416 15.024 68.0336 15.48 68.4976 16.056C68.9616 16.632 69.3056 17.304 69.5296 18.072C69.7696 18.824 69.8896 19.632 69.8896 20.496V21.504H61.5616V21.816C61.5616 22.728 61.8176 23.464 62.3296 24.024C62.8416 24.568 63.6016 24.84 64.6096 24.84C65.3776 24.84 66.0016 24.68 66.4816 24.36C66.9776 24.04 67.4176 23.632 67.8016 23.136L69.4576 24.984C68.9456 25.704 68.2416 26.272 67.3456 26.688C66.4656 27.088 65.4416 27.288 64.2736 27.288ZM64.2256 16.488C63.4096 16.488 62.7616 16.76 62.2816 17.304C61.8016 17.848 61.5616 18.552 61.5616 19.416V19.608H66.6976V19.392C66.6976 18.528 66.4816 17.832 66.0496 17.304C65.6336 16.76 65.0256 16.488 64.2256 16.488ZM13.5499 44.56H17.9179V44.464C17.9179 43.648 17.6859 42.976 17.2219 42.448C16.7739 41.92 16.1019 41.656 15.2059 41.656C14.4219 41.656 13.8219 41.816 13.4059 42.136C12.9899 42.44 12.6699 42.88 12.4459 43.456L10.0459 42.136C10.4779 41.224 11.1019 40.504 11.9179 39.976C12.7339 39.448 13.8299 39.184 15.2059 39.184C16.1819 39.184 17.0379 39.336 17.7739 39.64C18.5099 39.944 19.1259 40.384 19.6219 40.96C20.1179 41.52 20.4939 42.2 20.7499 43C21.0059 43.8 21.1339 44.704 21.1339 45.712C21.1339 46.72 21.0059 47.632 20.7499 48.448C20.4939 49.248 20.1099 49.936 19.5979 50.512C19.1019 51.088 18.4779 51.528 17.7259 51.832C16.9899 52.136 16.1339 52.288 15.1579 52.288C13.8139 52.288 12.7499 52.032 11.9659 51.52C11.1979 51.008 10.5499 50.232 10.0219 49.192L12.3979 47.968C12.6379 48.592 12.9739 49.056 13.4059 49.36C13.8379 49.664 14.4219 49.816 15.1579 49.816C16.1019 49.816 16.7979 49.568 17.2459 49.072C17.6939 48.56 17.9179 47.832 17.9179 46.888V46.696H13.5499V44.56ZM23.8541 39.472H26.9261V44.392H28.9421L30.8381 41.104C31.1901 40.496 31.5501 40.072 31.9181 39.832C32.2861 39.592 32.7741 39.472 33.3821 39.472H34.7501V41.92H33.4061L32.0861 44.224C31.8621 44.64 31.6461 44.936 31.4381 45.112C31.2301 45.272 30.9821 45.392 30.6941 45.472V45.592C30.9821 45.656 31.2381 45.768 31.4621 45.928C31.7021 46.088 31.9341 46.368 32.1581 46.768L33.7181 49.552H35.0381V52H33.4781C32.8701 52 32.3661 51.872 31.9661 51.616C31.5821 51.36 31.2141 50.92 30.8621 50.296L28.9421 46.816H26.9261V52H23.8541V39.472ZM42.3919 52.288C41.4639 52.288 40.6399 52.136 39.9199 51.832C39.1999 51.528 38.5919 51.088 38.0959 50.512C37.6159 49.936 37.2479 49.248 36.9919 48.448C36.7359 47.632 36.6079 46.72 36.6079 45.712C36.6079 44.704 36.7359 43.8 36.9919 43C37.2479 42.2 37.6159 41.52 38.0959 40.96C38.5919 40.384 39.1999 39.944 39.9199 39.64C40.6399 39.336 41.4639 39.184 42.3919 39.184C43.6559 39.184 44.6959 39.464 45.5119 40.024C46.3439 40.584 46.9439 41.36 47.3119 42.352L44.7919 43.48C44.6479 42.952 44.3759 42.52 43.9759 42.184C43.5919 41.832 43.0639 41.656 42.3919 41.656C41.5279 41.656 40.8799 41.928 40.4479 42.472C40.0319 43.016 39.8239 43.728 39.8239 44.608V46.888C39.8239 47.768 40.0319 48.48 40.4479 49.024C40.8799 49.552 41.5279 49.816 42.3919 49.816C43.1279 49.816 43.6959 49.632 44.0959 49.264C44.4959 48.88 44.8079 48.408 45.0319 47.848L47.3839 48.976C46.9679 50.08 46.3359 50.912 45.4879 51.472C44.6399 52.016 43.6079 52.288 42.3919 52.288ZM49.7526 39.472H60.3606V52H57.2886V41.92H52.8246V52H49.7526V39.472ZM68.8768 52.288C67.9808 52.288 67.1728 52.136 66.4528 51.832C65.7488 51.528 65.1408 51.088 64.6288 50.512C64.1328 49.936 63.7488 49.248 63.4768 48.448C63.2048 47.632 63.0688 46.72 63.0688 45.712C63.0688 44.704 63.2048 43.8 63.4768 43C63.7488 42.2 64.1328 41.52 64.6288 40.96C65.1408 40.384 65.7488 39.944 66.4528 39.64C67.1728 39.336 67.9808 39.184 68.8768 39.184C69.7728 39.184 70.5808 39.336 71.3008 39.64C72.0208 39.944 72.6288 40.384 73.1248 40.96C73.6368 41.52 74.0288 42.2 74.3008 43C74.5728 43.8 74.7088 44.704 74.7088 45.712C74.7088 46.72 74.5728 47.632 74.3008 48.448C74.0288 49.248 73.6368 49.936 73.1248 50.512C72.6288 51.088 72.0208 51.528 71.3008 51.832C70.5808 52.136 69.7728 52.288 68.8768 52.288ZM68.8768 49.816C69.6928 49.816 70.3328 49.568 70.7968 49.072C71.2608 48.576 71.4928 47.848 71.4928 46.888V44.56C71.4928 43.616 71.2608 42.896 70.7968 42.4C70.3328 41.904 69.6928 41.656 68.8768 41.656C68.0768 41.656 67.4448 41.904 66.9808 42.4C66.5168 42.896 66.2848 43.616 66.2848 44.56V46.888C66.2848 47.848 66.5168 48.576 66.9808 49.072C67.4448 49.568 68.0768 49.816 68.8768 49.816ZM77.4323 39.472H80.5043V41.536H80.6003C80.8243 40.816 81.2483 40.248 81.8723 39.832C82.4963 39.4 83.2243 39.184 84.0563 39.184C85.6563 39.184 86.8723 39.752 87.7043 40.888C88.5523 42.008 88.9763 43.616 88.9763 45.712C88.9763 47.824 88.5523 49.448 87.7043 50.584C86.8723 51.72 85.6563 52.288 84.0563 52.288C83.2243 52.288 82.4963 52.072 81.8723 51.64C81.2643 51.208 80.8403 50.632 80.6003 49.912H80.5043V56.8H77.4323V39.472ZM83.0723 49.744C83.8723 49.744 84.5203 49.48 85.0163 48.952C85.5123 48.424 85.7603 47.712 85.7603 46.816V44.656C85.7603 43.76 85.5123 43.048 85.0163 42.52C84.5203 41.976 83.8723 41.704 83.0723 41.704C82.3363 41.704 81.7203 41.888 81.2243 42.256C80.7443 42.624 80.5043 43.112 80.5043 43.72V47.704C80.5043 48.36 80.7443 48.864 81.2243 49.216C81.7203 49.568 82.3363 49.744 83.0723 49.744ZM94.2023 41.92H90.3863V39.472H101.09V41.92H97.2743V52H94.2023V41.92Z" fill="#000105"/>
<path d="M110 1H1V62H110V1Z" stroke="black" stroke-width="2"/>
</svg>

<svg width="111" height="63" fill="none" xmlns="http://www.w3.org/2000/svg"><path fill="#fff" d="M0 0h111v63H0z"/><path d="M52.304 19.92H45.32V27h-3.168V10.248h3.168v6.864h6.984v-6.864h3.168V27h-3.168v-7.08zm11.97 7.368c-.928 0-1.76-.152-2.496-.456a5.496 5.496 0 01-1.848-1.32c-.496-.576-.88-1.264-1.152-2.064-.272-.816-.408-1.728-.408-2.736 0-.992.128-1.888.384-2.688.272-.8.656-1.48 1.152-2.04a4.87 4.87 0 011.824-1.32c.72-.32 1.536-.48 2.448-.48.976 0 1.824.168 2.544.504a4.9 4.9 0 011.776 1.368 5.732 5.732 0 011.032 2.016c.24.752.36 1.56.36 2.424v1.008h-8.328v.312c0 .912.256 1.648.768 2.208.512.544 1.272.816 2.28.816.768 0 1.392-.16 1.872-.48.496-.32.936-.728 1.32-1.224l1.656 1.848c-.512.72-1.216 1.288-2.112 1.704-.88.4-1.904.6-3.072.6zm-.048-10.8c-.816 0-1.464.272-1.944.816-.48.544-.72 1.248-.72 2.112v.192h5.136v-.216c0-.864-.216-1.56-.648-2.088-.416-.544-1.024-.816-1.824-.816zM13.55 44.56h4.368v-.096c0-.816-.232-1.488-.696-2.016-.448-.528-1.12-.792-2.016-.792-.784 0-1.384.16-1.8.48-.416.304-.736.744-.96 1.32l-2.4-1.32a5.129 5.129 0 011.872-2.16c.816-.528 1.912-.792 3.288-.792.976 0 1.832.152 2.568.456a4.831 4.831 0 011.848 1.32c.496.56.872 1.24 1.128 2.04.256.8.384 1.704.384 2.712 0 1.008-.128 1.92-.384 2.736-.256.8-.64 1.488-1.152 2.064a4.797 4.797 0 01-1.872 1.32c-.736.304-1.592.456-2.568.456-1.344 0-2.408-.256-3.192-.768-.768-.512-1.416-1.288-1.944-2.328l2.376-1.224c.24.624.576 1.088 1.008 1.392.432.304 1.016.456 1.752.456.944 0 1.64-.248 2.088-.744.448-.512.672-1.24.672-2.184v-.192H13.55V44.56zm10.304-5.088h3.072v4.92h2.016l1.896-3.288c.352-.608.712-1.032 1.08-1.272.368-.24.856-.36 1.464-.36h1.368v2.448h-1.344l-1.32 2.304c-.224.416-.44.712-.648.888-.208.16-.456.28-.744.36v.12c.288.064.544.176.768.336.24.16.472.44.696.84l1.56 2.784h1.32V52h-1.56c-.608 0-1.112-.128-1.512-.384-.384-.256-.752-.696-1.104-1.32l-1.92-3.48h-2.016V52h-3.072V39.472zm18.538 12.816c-.928 0-1.752-.152-2.472-.456a4.87 4.87 0 01-1.824-1.32c-.48-.576-.848-1.264-1.104-2.064-.256-.816-.384-1.728-.384-2.736 0-1.008.128-1.912.384-2.712.256-.8.624-1.48 1.104-2.04a4.87 4.87 0 011.824-1.32c.72-.304 1.544-.456 2.472-.456 1.264 0 2.304.28 3.12.84.832.56 1.432 1.336 1.8 2.328l-2.52 1.128a2.51 2.51 0 00-.816-1.296c-.384-.352-.912-.528-1.584-.528-.864 0-1.512.272-1.944.816-.416.544-.624 1.256-.624 2.136v2.28c0 .88.208 1.592.624 2.136.432.528 1.08.792 1.944.792.736 0 1.304-.184 1.704-.552.4-.384.712-.856.936-1.416l2.352 1.128c-.416 1.104-1.048 1.936-1.896 2.496-.848.544-1.88.816-3.096.816zm7.36-12.816h10.609V52h-3.072V41.92h-4.464V52h-3.072V39.472zm19.125 12.816c-.896 0-1.704-.152-2.424-.456a5.138 5.138 0 01-1.824-1.32c-.496-.576-.88-1.264-1.152-2.064-.272-.816-.408-1.728-.408-2.736 0-1.008.136-1.912.408-2.712.272-.8.656-1.48 1.152-2.04a5.138 5.138 0 011.824-1.32c.72-.304 1.528-.456 2.424-.456.896 0 1.704.152 2.424.456a4.87 4.87 0 011.824 1.32c.512.56.904 1.24 1.176 2.04.272.8.408 1.704.408 2.712 0 1.008-.136 1.92-.408 2.736a5.945 5.945 0 01-1.176 2.064 4.87 4.87 0 01-1.824 1.32c-.72.304-1.528.456-2.424.456zm0-2.472c.816 0 1.456-.248 1.92-.744.464-.496.696-1.224.696-2.184V44.56c0-.944-.232-1.664-.696-2.16-.464-.496-1.104-.744-1.92-.744-.8 0-1.432.248-1.896.744-.464.496-.696 1.216-.696 2.16v2.328c0 .96.232 1.688.696 2.184.464.496 1.096.744 1.896.744zm8.555-10.344h3.072v2.064h.096a3.094 3.094 0 011.272-1.704c.624-.432 1.352-.648 2.184-.648 1.6 0 2.816.568 3.648 1.704.848 1.12 1.272 2.728 1.272 4.824 0 2.112-.424 3.736-1.272 4.872-.832 1.136-2.048 1.704-3.648 1.704-.832 0-1.56-.216-2.184-.648a3.373 3.373 0 01-1.272-1.728h-.096V56.8h-3.072V39.472zm5.64 10.272c.8 0 1.448-.264 1.944-.792s.744-1.24.744-2.136v-2.16c0-.896-.248-1.608-.744-2.136-.496-.544-1.144-.816-1.944-.816-.736 0-1.352.184-1.848.552-.48.368-.72.856-.72 1.464v3.984c0 .656.24 1.16.72 1.512.496.352 1.112.528 1.848.528zm11.13-7.824h-3.816v-2.448h10.704v2.448h-3.816V52h-3.072V41.92z" fill="#000105"/><path d="M110 1H1v61h109V1z" stroke="#000" stroke-width="2"/></svg>
